svgs/light/monument.svg

<svg xmlns="http://www.w3.org/2000/svg" viewBox="0 0 384 512"><!--! Font Awesome Pro 6.1.1 by @fontawesome - https://fontawesome.com License - https://fontawesome.com/license (Commercial License) Copyright 2022 Fonticons, Inc. --><path d="M180.7 4.686C186.9-1.562 197.1-1.562 203.3 4.686L283.3 84.69C285.9 87.23 287.5 90.56 287.9 94.13L319.9 366.1C320.9 374.9 314.6 382.9 305.9 383.9C297.1 384.9 289.1 378.6 288.1 369.9L256.8 103.4L191.1 38.63L127.2 103.4L95.89 369.9C94.86 378.6 86.91 384.9 78.13 383.9C69.35 382.9 63.08 374.9 64.11 366.1L96.11 94.13C96.53 90.56 98.14 87.23 100.7 84.69L180.7 4.686zM144 304C144 295.2 151.2 288 160 288H224C232.8 288 240 295.2 240 304C240 312.8 232.8 320 224 320H160C151.2 320 144 312.8 144 304zM344 416C366.1 416 384 433.9 384 456V472C384 494.1 366.1 512 344 512H40C17.91 512 0 494.1 0 472V456C0 433.9 17.91 416 40 416H344zM32 472C32 476.4 35.58 480 40 480H344C348.4 480 352 476.4 352 472V456C352 451.6 348.4 448 344 448H40C35.58 448 32 451.6 32 456V472z"/></svg>

<svg xmlns="http://www.w3.org/2000/svg" viewBox="0 0 384 512"><!--! Font Awesome Pro 6.4.2 by @fontawesome - https://fontawesome.com License - https://fontawesome.com/license (Commercial License) Copyright 2023 Fonticons, Inc. --><path d="M180.7 4.7c6.2-6.2 16.4-6.2 22.6 0l80 80c2.5 2.5 4.2 5.9 4.6 9.4l32 272c1 8.8-5.2 16.7-14 17.8s-16.7-5.2-17.8-14L256.8 103.4 192 38.6l-64.8 64.8L95.9 369.9c-1 8.8-9 15.1-17.8 14s-15.1-9-14-17.8l32-272c.4-3.6 2-6.9 4.6-9.4l80-80zM144 304c0-8.8 7.2-16 16-16h64c8.8 0 16 7.2 16 16s-7.2 16-16 16H160c-8.8 0-16-7.2-16-16zM40 416H344c22.1 0 40 17.9 40 40v16c0 22.1-17.9 40-40 40H40c-22.1 0-40-17.9-40-40V456c0-22.1 17.9-40 40-40zm-8 40v16c0 4.4 3.6 8 8 8H344c4.4 0 8-3.6 8-8V456c0-4.4-3.6-8-8-8H40c-4.4 0-8 3.6-8 8z"/></svg>
